packages/ffe-icons/icons/filled/sm/looks_6.svg

<svg xmlns="http://www.w3.org/2000/svg" height="20" viewBox="0 -960 960 960" width="20"><path d="M434.308-298.001h91.384q27.008 0 45.657-18.65 18.65-18.649 18.65-45.657v-79.384q0-27.008-18.65-45.657-18.649-18.65-45.657-18.65H421.999v-91.693q0-5.385 3.462-8.847 3.462-3.462 8.847-3.462H516q11.069 0 18.534-7.404 7.465-7.405 7.465-18.384 0-10.98-7.465-18.595-7.465-7.615-18.534-7.615h-81.692q-27.008 0-45.657 18.65-18.65 18.649-18.65 45.657v235.384q0 27.008 18.65 45.657 18.649 18.65 45.657 18.65Zm-12.309-156h103.693q5.385 0 8.847 3.462 3.462 3.462 3.462 8.847v79.384q0 5.385-3.462 8.847-3.462 3.462-8.847 3.462h-91.384q-5.385 0-8.847-3.462-3.462-3.462-3.462-8.847v-91.693Zm-193.69 290q-27.008 0-45.658-18.65-18.65-18.65-18.65-45.658v-503.382q0-27.008 18.65-45.658 18.65-18.65 45.658-18.65h503.382q27.008 0 45.658 18.65 18.65 18.65 18.65 45.658v503.382q0 27.008-18.65 45.658-18.65 18.65-45.658 18.65H228.309Z"/></svg>

<svg xmlns="http://www.w3.org/2000/svg" height="20" viewBox="0 -960 960 960" width="20"><path d="M434.31-298h91.38q27.01 0 45.66-18.65Q590-335.3 590-362.31v-79.38q0-27.01-18.65-45.66Q552.7-506 525.69-506H422v-91.69q0-5.39 3.46-8.85t8.85-3.46H516q11.07 0 18.53-7.41 7.47-7.4 7.47-18.38 0-10.98-7.47-18.59Q527.07-662 516-662h-81.69q-27.01 0-45.66 18.65Q370-624.7 370-597.69v235.38q0 27.01 18.65 45.66Q407.3-298 434.31-298ZM422-454h103.69q5.39 0 8.85 3.46t3.46 8.85v79.38q0 5.39-3.46 8.85t-8.85 3.46h-91.38q-5.39 0-8.85-3.46t-3.46-8.85V-454ZM228.31-164q-27.01 0-45.66-18.65Q164-201.3 164-228.31v-503.38q0-27.01 18.65-45.66Q201.3-796 228.31-796h503.38q27.01 0 45.66 18.65Q796-758.7 796-731.69v503.38q0 27.01-18.65 45.66Q758.7-164 731.69-164H228.31Z"/></svg>
